images/icons/calendar.svg

<svg width="17" height="15" viewBox="0 0 17 15" fill="none" xmlns="http://www.w3.org/2000/svg">
<path d="M6.14282 10C6.44282 10 6.64282 9.8 6.64282 9.5C6.64282 9.2 6.44282 9 6.14282 9C5.84282 9 5.64282 9.2 5.64282 9.5C5.64282 9.8 5.84282 10 6.14282 10Z" fill="black"/>
<path d="M15.3928 2H13.3928V0H12.3928V2H4.39282V0H3.39282V2H1.39282C0.792822 2 0.392822 2.4 0.392822 3V14C0.392822 14.5 0.792822 15 1.39282 15H15.3928C15.8928 15 16.3928 14.5 16.3928 14V3C16.3928 2.4 15.8928 2 15.3928 2ZM15.3928 14H1.39282V7H15.3928V14ZM1.39282 6V3H3.39282V5H4.39282V3H12.3928V5H13.3928V3H15.3928V6H1.39282Z" fill="black"/>
<path d="M8.39282 10C8.69282 10 8.89282 9.8 8.89282 9.5C8.89282 9.2 8.69282 9 8.39282 9C8.09282 9 7.89282 9.2 7.89282 9.5C7.89282 9.8 8.09282 10 8.39282 10Z" fill="black"/>
<path d="M10.6428 10C10.9428 10 11.1428 9.8 11.1428 9.5C11.1428 9.2 10.9428 9 10.6428 9C10.3428 9 10.1428 9.2 10.1428 9.5C10.1428 9.8 10.3428 10 10.6428 10Z" fill="black"/>
<path d="M6.14282 11C5.84282 11 5.64282 11.2 5.64282 11.5C5.64282 11.8 5.84282 12 6.14282 12C6.44282 12 6.64282 11.8 6.64282 11.5C6.64282 11.2 6.44282 11 6.14282 11Z" fill="black"/>
<path d="M3.89282 10C4.19282 10 4.39282 9.8 4.39282 9.5C4.39282 9.2 4.19282 9 3.89282 9C3.59282 9 3.39282 9.2 3.39282 9.5C3.39282 9.8 3.59282 10 3.89282 10Z" fill="black"/>
<path d="M3.89282 11C3.59282 11 3.39282 11.2 3.39282 11.5C3.39282 11.8 3.59282 12 3.89282 12C4.19282 12 4.39282 11.8 4.39282 11.5C4.39282 11.2 4.19282 11 3.89282 11Z" fill="black"/>
<path d="M8.39282 11C8.09282 11 7.89282 11.2 7.89282 11.5C7.89282 11.8 8.09282 12 8.39282 12C8.69282 12 8.89282 11.8 8.89282 11.5C8.89282 11.2 8.69282 11 8.39282 11Z" fill="black"/>
<path d="M10.6428 11C10.3428 11 10.1428 11.2 10.1428 11.5C10.1428 11.8 10.3428 12 10.6428 12C10.9428 12 11.1428 11.8 11.1428 11.5C11.1428 11.2 10.9428 11 10.6428 11Z" fill="black"/>
<path d="M12.8928 10C13.1928 10 13.3928 9.8 13.3928 9.5C13.3928 9.2 13.1928 9 12.8928 9C12.5928 9 12.3928 9.2 12.3928 9.5C12.3928 9.8 12.5928 10 12.8928 10Z" fill="black"/>
<path d="M12.8928 11C12.5928 11 12.3928 11.2 12.3928 11.5C12.3928 11.8 12.5928 12 12.8928 12C13.1928 12 13.3928 11.8 13.3928 11.5C13.3928 11.2 13.1928 11 12.8928 11Z" fill="black"/>
</svg>

<svg width="17" height="15" fill="none" xmlns="http://www.w3.org/2000/svg"><path d="M6.14 10c.3 0 .5-.2.5-.5s-.2-.5-.5-.5-.5.2-.5.5.2.5.5.5Z" fill="#000"/><path d="M15.4 2h-2V0h-1v2h-8V0h-1v2h-2c-.6 0-1 .4-1 1v11c0 .5.4 1 1 1h14c.5 0 1-.5 1-1V3c0-.6-.5-1-1-1Zm0 12h-14V7h14v7Zm-14-8V3h2v2h1V3h8v2h1V3h2v3h-14Z" fill="#000"/><path d="M8.4 10c.3 0 .5-.2.5-.5S8.7 9 8.4 9s-.5.2-.5.5.2.5.5.5ZM10.64 10c.3 0 .5-.2.5-.5s-.2-.5-.5-.5-.5.2-.5.5.2.5.5.5ZM6.14 11c-.3 0-.5.2-.5.5s.2.5.5.5.5-.2.5-.5-.2-.5-.5-.5ZM3.9 10c.3 0 .5-.2.5-.5S4.2 9 3.9 9s-.5.2-.5.5.2.5.5.5ZM3.9 11c-.3 0-.5.2-.5.5s.2.5.5.5.5-.2.5-.5-.2-.5-.5-.5ZM8.4 11c-.3 0-.5.2-.5.5s.2.5.5.5.5-.2.5-.5-.2-.5-.5-.5ZM10.64 11c-.3 0-.5.2-.5.5s.2.5.5.5.5-.2.5-.5-.2-.5-.5-.5ZM12.9 10c.3 0 .5-.2.5-.5s-.2-.5-.5-.5-.5.2-.5.5.2.5.5.5ZM12.9 11c-.3 0-.5.2-.5.5s.2.5.5.5.5-.2.5-.5-.2-.5-.5-.5Z" fill="#000"/></svg>
